X:77
T:Seneca Square Dance
M:4/4
C: Traditional
R: Reel
L:1/4
K:G
D G |:"G"B2 B>B |d B-B2 | B2 B>B | "F" A "C" G-G A|
|"G"B2 B>B |d B-B A/G/ |"C" A/B/A/G/ "D" E F |1 "G" G2 D G:|2 "G" G2 B d|]
|: "G" g2 g-g/e/ | d B-B2 | "G"g2 "D/F#" g.a | "Em" b e-e2|
|"C" g/a/b/a/ g e| "G" d>B2 A/ G | "C" A/B/A/G/ "D" E F |1 "G"G2 B d :|2 "G" G4 |]


